icons/plexis/48/keepassx.svg

<svg viewBox="0 0 48 48" xmlns="http://www.w3.org/2000/svg" xmlns:xlink="http://www.w3.org/1999/xlink">
  <linearGradient id="a" gradientTransform="matrix(0 -1 1 0 -.0000015 47.999998)" gradientUnits="userSpaceOnUse" x1="1" x2="47">
    <stop offset="0" stop-color="#45aa2a"/>
    <stop offset="1" stop-color="#4aba2e"/>
  </linearGradient>
  <path d="m47 24c0 22.703-.297 23-23 23-22.703 0-23-.297-23-23 0-22.703.297-23 23-23 22.703 0 23 .297 23 23z" fill="url(#a)"/>
  <g opacity=".1" transform="translate(1 1)">
    <use xlink:href="#b"/>
    <path d="m29.574 12c-3.547 0-6.43 2.879-6.43 6.43 0 1.109.285 2.156.777 3.066.004.004-.004.012 0 .016l-11.922 11.918v2.574h2.574l.855-.859v-1.715h1.715l.859-.855h1.715l.852-.859v-1.715l.859-.855h1.715v-1.715l3.348-3.348c.004 0 .016-.004.02 0 .91.496 1.957.773 3.063.773 3.543 0 6.434-2.875 6.434-6.426v-.027c-.016-3.547-2.891-6.406-6.434-6.406m1.281 3.434c.945 0 1.711.77 1.715 1.715 0 .949-.77 1.715-1.715 1.715-.945 0-1.715-.766-1.715-1.715 0-.945.77-1.715 1.715-1.715m0 0"/>
  </g>
  <path id="b" d="m12 14v2.75l19.253906 19.25h2.746094v-2.75l-19.25-19.25zm0 0" fill-opacity=".196"/>
  <path d="m29.574 12c-3.547 0-6.43 2.879-6.43 6.43 0 1.109.285 2.156.777 3.066.004.004-.004.012 0 .016l-11.922 11.918v2.574h2.574l.855-.859v-1.715h1.715l.859-.855h1.715l.852-.859v-1.715l.859-.855h1.715v-1.715l3.348-3.348c.004 0 .016-.004.02 0 .91.496 1.957.773 3.063.773 3.543 0 6.434-2.875 6.434-6.426v-.027c-.016-3.547-2.891-6.406-6.434-6.406m1.281 3.434c.945 0 1.711.77 1.715 1.715 0 .949-.77 1.715-1.715 1.715-.945 0-1.715-.766-1.715-1.715 0-.945.77-1.715 1.715-1.715m0 0" fill="#f9f9f9"/>
</svg>

<svg xmlns="http://www.w3.org/2000/svg" xmlns:xlink="http://www.w3.org/1999/xlink" viewBox="0 0 48 48">
 <defs>
  <linearGradient id="linearGradient3764" x1="1" x2="47" gradientUnits="userSpaceOnUse" gradientTransform="matrix(0,-1,1,0,-1.5e-6,47.999998)">
   <stop style="stop-color:#45aa2a;stop-opacity:1"/>
   <stop offset="1" style="stop-color:#4aba2e;stop-opacity:1"/>
  </linearGradient>
 </defs>
 <g>
  
  
  
 </g>
 <g>
  <path d="m 47,24 C 47,46.703 46.703,47 24,47 1.297,47 1,46.703 1,24 1,1.297 1.297,1 24,1 46.703,1 47,1.297 47,24 z" style="fill:url(#linearGradient3764);fill-opacity:1"/>
 </g>
 <g>
  <g>
   <g transform="translate(1,1)">
    <g style="opacity:0.1">
     <!-- color: #4aba2e -->
     <g>
      <use xlink:href="#SVGCleanerId_0"/>
      <path d="m 29.574 12 c -3.547 0 -6.43 2.879 -6.43 6.43 c 0 1.109 0.285 2.156 0.777 3.066 c 0.004 0.004 -0.004 0.012 0 0.016 l -11.922 11.918 l 0 2.574 l 2.574 0 l 0.855 -0.859 l 0 -1.715 l 1.715 0 l 0.859 -0.855 l 1.715 0 l 0.852 -0.859 l 0 -1.715 l 0.859 -0.855 l 1.715 0 l 0 -1.715 l 3.348 -3.348 c 0.004 0 0.016 -0.004 0.02 0 c 0.91 0.496 1.957 0.773 3.063 0.773 c 3.543 0 6.434 -2.875 6.434 -6.426 l 0 -0.027 c -0.016 -3.547 -2.891 -6.406 -6.434 -6.406 m 1.281 3.434 c 0.945 0 1.711 0.77 1.715 1.715 c 0 0.949 -0.77 1.715 -1.715 1.715 c -0.945 0 -1.715 -0.766 -1.715 -1.715 c 0 -0.945 0.77 -1.715 1.715 -1.715 m 0 0" style="fill:#000;fill-opacity:1;stroke:none;fill-rule:nonzero"/>
     </g>
    </g>
   </g>
  </g>
 </g>
 <g>
  <g>
   <!-- color: #4aba2e -->
   <g>
    <path d="M 12 14 L 12 16.75 L 31.253906 36 L 34 36 L 34 33.25 L 14.75 14 Z M 12 14 " id="SVGCleanerId_0" style="fill:#000;fill-opacity:0.196;stroke:none;fill-rule:nonzero"/>
    <path d="m 29.574 12 c -3.547 0 -6.43 2.879 -6.43 6.43 c 0 1.109 0.285 2.156 0.777 3.066 c 0.004 0.004 -0.004 0.012 0 0.016 l -11.922 11.918 l 0 2.574 l 2.574 0 l 0.855 -0.859 l 0 -1.715 l 1.715 0 l 0.859 -0.855 l 1.715 0 l 0.852 -0.859 l 0 -1.715 l 0.859 -0.855 l 1.715 0 l 0 -1.715 l 3.348 -3.348 c 0.004 0 0.016 -0.004 0.02 0 c 0.91 0.496 1.957 0.773 3.063 0.773 c 3.543 0 6.434 -2.875 6.434 -6.426 l 0 -0.027 c -0.016 -3.547 -2.891 -6.406 -6.434 -6.406 m 1.281 3.434 c 0.945 0 1.711 0.77 1.715 1.715 c 0 0.949 -0.77 1.715 -1.715 1.715 c -0.945 0 -1.715 -0.766 -1.715 -1.715 c 0 -0.945 0.77 -1.715 1.715 -1.715 m 0 0" style="fill:#f9f9f9;fill-opacity:1;stroke:none;fill-rule:nonzero"/>
   </g>
  </g>
 </g>
 <g>
  
 </g>
</svg>
